X:33
T: Es reit't ein Reiter (Band 1), S. 103
N: P0807
O: Lothringen
S: PINCK, Louis: Verklingende Weisen, Bd 1, Metz 1928]
R: Verfhrung, Vergewaltigung, Mord]
M: 3/4
L: 1/8
K: D
A2 | A4G2 | E2E2B2 | B2B2A2 | F2z2
A2 | A4G2 | E2F2G2 | B2A2A2 | F4
A2 | F2A2A2 | F2G2A2 | B4c2 | d2c2
B2 | A3BA2 | A2A2F2 | G4A2 | F4

